rospo-icon-theme-classic-common/22x22/apps/evelauncher.svg

<svg height="22" width="22" xmlns="http://www.w3.org/2000/svg"><rect height="21" opacity=".2" rx="1.05" transform="matrix(0 -1 -1 0 0 0)" width="21" x="-21.5" y="-22"/><rect fill="#4f4f4f" height="21" rx="1.05" transform="matrix(0 -1 -1 0 0 0)" width="21" x="-21" y="-22"/><path d="m5 4.4999993v3 1h3v-1h10v-3zm0 4.9999997v3h13v-3zm0 4v1 3h13v-3h-10v-1z" opacity=".2"/><path d="m5 4v3 1h3v-1h10v-3zm0 5v3h13v-3zm0 4v1 3h13v-3h-10v-1z" fill="#fff"/><path d="m2.0507812 0c-.5816999 0-1.0507812.4690813-1.0507812 1.0507812v.5c0-.5816999.4690813-1.0507812 1.0507812-1.0507812h18.8984378c.5817 0 1.050781.4690813 1.050781 1.0507812v-.5c0-.5816999-.469081-1.0507812-1.050781-1.0507812z" fill="#fff" opacity=".1"/></svg>

<svg xmlns="http://www.w3.org/2000/svg" width="22" height="22" version="1">
 <rect width="21" height="21" x="-21.5" y="-22" rx="1.05" ry="1.05" transform="matrix(0,-1,-1,0,0,0)" style="opacity:0.2"/>
 <rect style="fill:#4f4f4f" width="21" height="21" x="-21" y="-22" rx="1.05" ry="1.05" transform="matrix(0,-1,-1,0,0,0)"/>
 <path d="m 5,4.4999993 v 3 1 h 3 v -1 h 10 v -3 z M 5,9.499999 v 3 h 13 v -3 z m 0,4 v 1 3 h 13 v -3 H 8 v -1 z" style="opacity:0.2"/>
 <path style="fill:#ffffff" d="M 5,4 V 7 8 H 8 V 7 H 18 V 4 Z m 0,5 v 3 H 18 V 9 Z m 0,4 v 1 3 H 18 V 14 H 8 v -1 z"/>
 <path style="opacity:0.1;fill:#ffffff" d="M 2.0507812,0 C 1.4690813,0 1,0.4690813 1,1.0507812 v 0.5 C 1,0.9690813 1.4690813,0.5 2.0507812,0.5 H 20.949219 C 21.530919,0.5 22,0.9690813 22,1.5507812 v -0.5 C 22,0.4690813 21.530919,0 20.949219,0 Z"/>
</svg>
